tools/download-figma-icons/icons/outlined-large/water-detector.svg

<svg width="64" height="64" viewBox="0 0 64 64" fill="none" xmlns="http://www.w3.org/2000/svg">
<path fill-rule="evenodd" clip-rule="evenodd" d="M56.5 22.0002H61V3.00024H56.5V4.48024C56.5 4.48724 56.502 4.49324 56.502 4.50024V20.5002C56.502 20.5037 56.5015 20.507 56.501 20.5102C56.5005 20.5135 56.5 20.5167 56.5 20.5202V22.0002ZM40.345 15.6202L38.359 19.0002H53.5V6.00024H10.502V19.0002H24.298L26.194 16.9732L25.47 13.3312C25.352 12.7332 25.606 12.1222 26.116 11.7862L30.956 8.59924C31.362 8.33124 31.875 8.27824 32.327 8.45424C32.78 8.63224 33.12 9.01824 33.237 9.49024L34.213 13.4262L39.03 13.3602H39.051C39.585 13.3602 40.079 13.6452 40.348 14.1062C40.62 14.5742 40.618 15.1532 40.345 15.6202ZM7.5 22.0002H3V3.00024H7.5V22.0002ZM56.253 0.000244141H61.248C62.766 0.000244141 64 1.23424 64 2.75224V22.2472C64 23.7652 62.766 25.0002 61.248 25.0002H56.253C54.735 25.0002 53.5 23.7652 53.5 22.2472V22.0002H35.739C35.201 22.0002 34.705 21.7122 34.438 21.2452C34.17 20.7782 34.174 20.2042 34.445 19.7402L36.409 16.3962L33.064 16.4412C32.407 16.4802 31.756 15.9792 31.588 15.3032L30.836 12.2712L28.609 13.7362L29.287 17.1442C29.381 17.6172 29.241 18.1072 28.911 18.4602L26.045 21.5242C25.761 21.8282 25.364 22.0002 24.949 22.0002H10.5V22.2472C10.5 23.7652 9.266 25.0002 7.748 25.0002H2.753C1.235 25.0002 0 23.7652 0 22.2472V2.75224C0 1.23424 1.235 0.000244141 2.753 0.000244141H7.748C9.266 0.000244141 10.5 1.23424 10.5 2.75224V3.00024H53.5V2.75224C53.5 1.23424 54.735 0.000244141 56.253 0.000244141ZM32 49.0822C28.691 49.0822 26 46.3912 26 43.0822C26 41.2042 28.286 36.8152 32 31.5342C35.661 36.7422 38 41.2312 38 43.0822C38 46.3912 35.309 49.0822 32 49.0822ZM32.002 28.1232H32C31.217 28.1232 30.477 28.5042 30.02 29.1422C26.817 33.6172 23 39.6682 23 43.0822C23 48.0452 27.037 52.0822 32 52.0822C36.963 52.0822 41 48.0452 41 43.0822C41 39.4832 36.602 32.8042 33.981 29.1432C33.525 28.5052 32.786 28.1232 32.002 28.1232ZM30.501 45.4055C30.501 46.2335 31.173 46.9055 32.001 46.9055C34.109 46.9055 35.824 45.1905 35.824 43.0825C35.824 42.2545 35.152 41.5825 34.324 41.5825C33.496 41.5825 32.824 42.2545 32.824 43.0825C32.824 43.5365 32.455 43.9055 32.001 43.9055C31.173 43.9055 30.501 44.5775 30.501 45.4055ZM45.7129 38.0704C45.1269 37.4844 45.1269 36.5354 45.7129 35.9494C46.2989 35.3634 47.2479 35.3634 47.8339 35.9494C52.1609 40.2754 52.1609 47.3164 47.8339 51.6424C47.5409 51.9354 47.1569 52.0824 46.7739 52.0824C46.3899 52.0824 46.0059 51.9354 45.7129 51.6424C45.1269 51.0564 45.1269 50.1074 45.7129 49.5214C48.8699 46.3644 48.8699 41.2274 45.7129 38.0704ZM52.2432 29.5324C51.6572 30.1184 51.6572 31.0674 52.2432 31.6534C58.9382 38.3484 58.9382 49.2444 52.2432 55.9394C51.6572 56.5254 51.6572 57.4744 52.2432 58.0604C52.5362 58.3534 52.9202 58.5004 53.3042 58.5004C53.6872 58.5004 54.0712 58.3534 54.3642 58.0604C62.2292 50.1954 62.2292 37.3974 54.3642 29.5324C53.7782 28.9464 52.8292 28.9464 52.2432 29.5324ZM16.1895 35.9494C16.7755 35.3634 17.7245 35.3634 18.3105 35.9494C18.8965 36.5354 18.8965 37.4844 18.3105 38.0704C15.1535 41.2274 15.1535 46.3644 18.3105 49.5214C18.8965 50.1074 18.8965 51.0564 18.3105 51.6424C18.0175 51.9354 17.6335 52.0824 17.2495 52.0824C16.8665 52.0824 16.4825 51.9354 16.1895 51.6424C11.8625 47.3164 11.8625 40.2754 16.1895 35.9494ZM11.7803 29.5324C11.1943 28.9464 10.2453 28.9464 9.6593 29.5324C1.7943 37.3974 1.7943 50.1954 9.6593 58.0604C9.9523 58.3534 10.3363 58.5004 10.7193 58.5004C11.1033 58.5004 11.4873 58.3534 11.7803 58.0604C12.3663 57.4744 12.3663 56.5254 11.7803 55.9394C5.0853 49.2444 5.0853 38.3484 11.7803 31.6534C12.3663 31.0674 12.3663 30.1184 11.7803 29.5324Z" fill="black"/>
</svg>

<svg width="64" height="64" viewBox="0 0 64 64" fill="none" xmlns="http://www.w3.org/2000/svg"><path fill-rule="evenodd" clip-rule="evenodd" d="M56.5 22H61V3h-4.5v1.48l.002.02v16l-.001.01-.001.01V22Zm-16.155-6.38L38.359 19H53.5V6H10.502v13h13.796l1.896-2.027-.724-3.642a1.501 1.501 0 0 1 .646-1.545l4.84-3.187a1.503 1.503 0 0 1 1.371-.145c.453.178.793.564.91 1.036l.976 3.936 4.817-.066h.021c.534 0 1.028.285 1.297.746.272.468.27 1.047-.003 1.514ZM7.5 22H3V3h4.5v19ZM56.253 0h4.995A2.754 2.754 0 0 1 64 2.752v19.495A2.755 2.755 0 0 1 61.248 25h-4.995a2.756 2.756 0 0 1-2.753-2.753V22H35.739a1.502 1.502 0 0 1-1.294-2.26l1.964-3.344-3.345.045c-.657.04-1.308-.462-1.476-1.138l-.752-3.032-2.227 1.465.678 3.408a1.5 1.5 0 0 1-.376 1.316l-2.866 3.064a1.5 1.5 0 0 1-1.096.476H10.5v.247A2.755 2.755 0 0 1 7.748 25H2.753A2.756 2.756 0 0 1 0 22.247V2.752A2.755 2.755 0 0 1 2.753 0h4.995A2.754 2.754 0 0 1 10.5 2.752V3h43v-.248A2.755 2.755 0 0 1 56.253 0ZM32 49.082c-3.309 0-6-2.69-6-6 0-1.878 2.286-6.267 6-11.548 3.661 5.208 6 9.697 6 11.548 0 3.31-2.691 6-6 6Zm.002-20.959H32a2.44 2.44 0 0 0-1.98 1.02C26.817 33.616 23 39.667 23 43.082c0 4.962 4.037 9 9 9s9-4.038 9-9c0-3.6-4.398-10.279-7.019-13.94a2.438 2.438 0 0 0-1.979-1.02Zm-1.501 17.283a1.5 1.5 0 0 0 1.5 1.5 3.827 3.827 0 0 0 3.823-3.823 1.5 1.5 0 0 0-3 0 .824.824 0 0 1-.823.823 1.5 1.5 0 0 0-1.5 1.5Zm15.212-7.336a1.5 1.5 0 1 1 2.12-2.12c4.328 4.325 4.328 11.366 0 15.692a1.496 1.496 0 0 1-2.12 0 1.5 1.5 0 0 1 0-2.12c3.157-3.158 3.157-8.295 0-11.452Zm6.53-8.538a1.5 1.5 0 0 0 0 2.121c6.695 6.695 6.695 17.591 0 24.286a1.5 1.5 0 1 0 2.121 2.121c7.865-7.865 7.865-20.663 0-28.528a1.5 1.5 0 0 0-2.12 0ZM16.19 35.95a1.5 1.5 0 1 1 2.122 2.121c-3.158 3.157-3.158 8.294 0 11.451a1.5 1.5 0 1 1-2.122 2.121c-4.326-4.326-4.326-11.367 0-15.693Zm-4.409-6.417a1.5 1.5 0 0 0-2.12 0c-7.866 7.865-7.866 20.663 0 28.528a1.496 1.496 0 0 0 2.12 0 1.5 1.5 0 0 0 0-2.12c-6.695-6.696-6.695-17.592 0-24.287a1.5 1.5 0 0 0 0-2.12Z" fill="currentColor"/></svg>
